X:1
T:Heimliche Liebe
T:Satz: Konrad Max Kunz
T:Volkslied
T:Heimliche Liebe
T:CPDL - Creative Commons Attribution Non Commercial 3.0
C:Konrad Max Kunz
Z:CPDL - Creative Commons Attribution Non Commercial 3.0
%%score [ ( 1 2 ) ( 3 4 ) ]
L:1/8
Q:1/4=80
M:3/4
K:F
V:1 treble nm="Sopran\nAlt"
V:2 treble 
V:3 bass nm="Tenor\nBass"
V:4 bass 
V:1
"^Tempo di Menuetto" (CC) | F2 F2 GG | A2 A2 B2 | c2 dc BA | G4 c2 | d2 B2 df | f2 c z (Ac) | %7
w: 1.~Kein *|Feu- er, kei- ne|Koh- le kann|bren- nen * so *|heiß, als|heim- li- che *|Lie- be, von der|
w: 2.~Kei- ne|Ro- se, kei- ne|Nel- ke kann|blü- hen * so *|schön, als|wenn zwei Ver- *|lieb- te so bei|
w: 5.~Und *|willst du es _|wis- sen, wie|treu ich * es *|mein', so|setz' ei- nen *|Spie- gel in's _|
w: 6.~Und der|Spie- gel wird's _|wei- sen: es|ist nichts * da- *|rin, als|Lie- be und *|Treu- e und _|
 cB A2 G2 | (F3 A GB |"^cresc." A3 c Bd |!>(! c2!>)! f) z Ac | cB A2 G2 | F4 |] %13
w: nie- * mand nicht|weiß, _ _ _|_ _ _ _|* * von der|nie- * mand nicht|weiß.|
w: ein- * an- der|stehn, _ _ _|_ _ _ _|* * so bei|ein- * an- der|stehn.|
w: Herz * mir hin-|ein, _ _ _|_ _ _ _|* * in's _|Herz * mir hin-|ein!|
w: ehr- * li- cher|Sinn, _ _ _|_ _ _ _|* * und _|ehr- * li- cher|Sinn.|
V:2
 (CC) | C2 C2 EE | F2 F2 G2 | A2 BA GF | E4 F2 | D2 F2 F2 | A2 A x (FA) | AG F2 E2 | (C3 F EG | %9
 F6-) | (F2 A) x FA | AG F2 E2 | C4 |] %13
V:3
 (CC) | A,2 A,2 CC | C2 F2 F2 | F,2 B,2 D2 | G,4 F,2 | F,2 B,2 B,D | C2 F z (FC) | A,D C2 B,2 | %8
 (A,4 C2 |"^cresc." F,3 A, G,B, |!>(! A,2!>)! C) z CC | CD C2 B,2 | A,4 |] %13
V:4
 (CC) | F,2 F,2 C,C, | F,2 F,2 F,2 | F,2 B,,2 B,,2 | C,4 A,,2 | B,,2 D,2 B,,2 | F,2 F, x (F,F,) | %7
 F,B, C2 C,2 | (F,4 C,2 | F,6-) | F,3 x F,C, | A,,B,, C,2 C,2 | F,,4 |] %13

